packages/core/src/svgs/ceur.svg

<svg width="24" height="24" viewBox="0 0 24 24" fill="none" xmlns="http://www.w3.org/2000/svg">
<g clip-path="url(#clip0_31_8129)">
<path d="M0 0H24V24H0V0Z" fill="#3BC77B"/>
<path d="M15.6431 12.0002C16.4059 12.0002 17.0959 11.6959 17.5974 11.1988L18.0002 12.5488C17.4952 12.9022 16.9167 13.1369 16.3081 13.2352C15.6996 13.3335 15.0767 13.2929 14.486 13.1165C13.8953 12.9401 13.3522 12.6324 12.8973 12.2164C12.4423 11.8005 12.0873 11.287 11.8588 10.7145H9.7245L10.1445 9.85734H11.6231C11.5787 9.57393 11.5644 9.28663 11.5802 9.0002H10.2088L10.6245 8.14306H11.7131C11.8859 7.51243 12.2076 6.93252 12.6511 6.45207C13.0946 5.97162 13.647 5.60468 14.2618 5.3821C14.8767 5.15952 15.5359 5.08781 16.1842 5.17299C16.8325 5.25818 17.4509 5.49777 17.9874 5.87163L17.5588 7.19163C17.232 6.87936 16.834 6.65156 16.3993 6.528C15.9645 6.40445 15.5062 6.38887 15.064 6.48262C14.6219 6.57637 14.2093 6.77661 13.8621 7.06597C13.5149 7.35533 13.2436 7.72506 13.0716 8.14306H17.2459L16.9245 9.0002H12.8659C12.8437 9.28752 12.8654 9.57655 12.9302 9.85734H16.7659L16.4445 10.7145H13.2945C13.5465 11.1088 13.8937 11.4333 14.3042 11.658C14.7147 11.8827 15.1751 12.0004 15.6431 12.0002ZM5.14307 13.0716C5.14263 11.8733 5.51431 10.7043 6.20678 9.72626C6.89924 8.74821 7.87833 8.00931 9.00879 7.61163C8.99368 8.21066 9.05124 8.80931 9.18022 9.39448C8.59362 9.67337 8.08225 10.0885 7.68882 10.6053C7.29539 11.1222 7.03132 11.7256 6.91865 12.3653C6.80598 13.0049 6.84798 13.6623 7.04115 14.2824C7.23433 14.9025 7.57306 15.4674 8.02907 15.93C8.48508 16.3925 9.04513 16.7392 9.66246 16.9411C10.2798 17.1431 10.9365 17.1944 11.5777 17.0908C12.2189 16.9872 12.826 16.7318 13.3483 16.3457C13.8707 15.9596 14.293 15.4542 14.5802 14.8716C15.1502 15.0131 15.7416 15.0859 16.3545 15.0902C15.8829 16.364 14.9781 17.4312 13.7987 18.105C12.6192 18.7787 11.2404 19.0161 9.90357 18.7754C8.56677 18.5347 7.35726 17.8313 6.4869 16.7885C5.61654 15.7457 5.14082 14.4299 5.14307 13.0716Z" fill="white"/>
</g>
<defs>
<clipPath id="clip0_31_8129">
<rect width="24" height="24" fill="white"/>
</clipPath>
</defs>
</svg>

<svg xmlns="http://www.w3.org/2000/svg" width="24" height="24" fill="none" viewBox="0 0 24 24"><g clip-path="url(#a)"><path fill="#3BC77B" d="M0 0h24v24H0z"/><path fill="#fff" d="M15.643 12c.763 0 1.453-.304 1.954-.801l.403 1.35a4.088 4.088 0 0 1-6.141-1.835H9.725l.42-.857h1.478A4 4 0 0 1 11.58 9H10.21l.415-.857h1.09a4.084 4.084 0 0 1 6.273-2.271l-.428 1.32a2.778 2.778 0 0 0-4.487.951h4.174L16.924 9h-4.058c-.022.288 0 .577.064.857h3.836l-.321.857h-3.15A2.79 2.79 0 0 0 15.642 12m-10.5 1.072a5.79 5.79 0 0 1 3.866-5.46 7.4 7.4 0 0 0 .171 1.782 4.071 4.071 0 1 0 5.4 5.478q.855.212 1.775.218a5.786 5.786 0 0 1-11.212-2.018"/></g><defs><clipPath id="a"><path fill="#fff" d="M0 0h24v24H0z"/></clipPath></defs></svg>
